X:1
T:St. Asaph (Bambridge), 87.87 D
T:St. Asaph (Bambridge), 87.87 D
T:Wiliam Samuel Bambridge, 1872
T:Public Domain Courtesy of the Cyber Hymnal™
C:Wiliam Samuel Bambridge, 1872
Z:Public Domain
Z:Courtesy of the Cyber Hymnal™
%%score ( 1 2 ) ( 3 4 )
L:1/8
Q:1/4=110
M:4/4
K:D
V:1 treble 
V:2 treble 
V:3 bass 
V:4 bass 
V:1
 [DF]2 [DF]2 [DF]3 [CG] | [DA]2 [EA]2 [FA]2 [Fd]2 | [Gd]2 [GB]2 [DA]2 [DB]2 | [EA]2 [DF]2 [CE]4 | %4
 [DF]2 [DF]2 [DF]3 [CG] | [DA]2 [EA]2 [FA]2 [Dd]2 | [Ec]2 [EB]2 [Ee]2 [Fd]2 | c2 z D [CA]4 | %8
 [FA]2 [FB]2 [Fc]2 [Fd]2 | [^Ec]3 [Fc] [^Gc]2 [EG]2 | [FA]2 [FB]2 [Fc]2 [Fd]2 | %11
 [^Ec]2 [EB]2 [CA]4 | [DF]2 [DF]2 [DF]3 [CG] | [DA]2 [EA]2 [FA]2 [Fd]2 | [Gd]2 [GB]2 [DA]2 [DB]2 | %15
 [DF]2 [CE]2 D4 |] %16
V:2
 x8 | x8 | x8 | x8 | x8 | x8 | x8 | E3 B2 x3 | x8 | x8 | x8 | x8 | x8 | x8 | x8 | x4 D4 |] %16
V:3
 [D,A,]2 [A,,A,]2 [D,A,]3 [E,A,] | [F,A,]2 [G,C]2 [F,D]2 [D,A,]2 | [G,B,]2 [G,D]2 [F,D]2 [B,,F,]2 | %3
 [C,A,]2 [D,A,]2 [A,,A,]4 | [D,A,]2 [A,,A,]2 [D,A,]3 [E,A,] | [F,A,]2 [G,C]2 [F,D]2 [B,,B,]2 | %6
 [E,A,]2 [D,^G,]2 [C,A,]2 [D,A,]2 | [E,A,]2 [E,^G,]2 [A,,A,]4 | [F,C]2 [D,D]2 [A,,C]2 [B,,B,]2 | %9
 (^G,2 z) ^D, [^E,C]2 [C,C]2 | [F,C]2 [D,B,]2 [C,A,]2 [B,,B,]2 | [C,^G,]2 [C,G,]2 F,4 | %12
 [D,A,]2 [A,,A,]2 [D,A,]3 [E,A,] | [F,A,]2 [G,C]2 [F,D]2 [D,A,]2 | [G,B,]2 [G,D]2 [F,D]2 (F,G,) | %15
 A,3 z [D,F,]4 |] %16
V:4
 x8 | x8 | x8 | x8 | x8 | x8 | x8 | x8 | x8 | C,3 C2 x3 | x8 | x4 F,4 | x8 | x8 | x6 B,,2 | %15
 A,,2 (A,,2 G,) x3 |] %16

